dist/svg/static/honk-and-flash-large.svg

<svg xmlns="http://www.w3.org/2000/svg" width="48" height="48" viewBox="0 0 48 48"><g fill="none" stroke="currentColor" stroke-miterlimit="10"><path d="M17.5 16.5v-6h-7v-6l-9 9 9 9v-6zM21.5 10.5v6h7v6l9-9-9-9v6zM27 33.5h6.2s10.3 0 10.3 10h2v-24h-2s-.7 10-10.3 10H17s-6.1-.4-7.5-2.5v9s3-2.4 7.5-2.5h6"/><path d="M22.6 33.5c-4 .5-6.9 2.1-7.1 4.5-.2 3.1 4.1 6 10 6.5s10.8-1.9 11-5c.2-2.9-3.4-5.2-8.6-6"/><path d="M19.5 38.5c-.1 1.6 2.8 2.7 6.5 3s6.4-.9 6.5-2.5-2.3-2.2-6-2.5-6.9.4-7 2z"/></g></svg>

<?xml version="1.0" encoding="UTF-8" standalone="no"?>
<svg width="48px" height="48px" viewBox="0 0 48 48" version="1.1" xmlns="http://www.w3.org/2000/svg" xmlns:xlink="http://www.w3.org/1999/xlink">
    <!-- Generator: sketchtool 46.2 (44496) - http://www.bohemiancoding.com/sketch -->
    <title>honk-and-flash-large</title>
    <desc>Created with sketchtool.</desc>
    <defs></defs>
    <g id="icons-published" stroke="none" stroke-width="1" fill="none" fill-rule="evenodd">
        <g id="briefing" transform="translate(-2016.000000, -794.000000)"></g>
        <g id="honk-and-flash-large" stroke="#000000">
            <path d="M17.5,16.5 L17.5,10.5 L10.5,10.5 L10.5,4.5 L1.5,13.5 L10.5,22.5 L10.5,16.5 L17.5,16.5 Z M21.5,10.5 L21.5,16.5 L28.5,16.5 L28.5,22.5 L37.5,13.5 L28.5,4.5 L28.5,10.5 L21.5,10.5 Z M27,33.5 L33.2,33.5 C33.2,33.5 43.5,33.5 43.5,43.5 L45.5,43.5 L45.5,19.5 L43.5,19.5 C43.5,19.5 42.8,29.5 33.2,29.5 L17,29.5 C17,29.5 10.9,29.1 9.5,27 L9.5,36 C9.5,36 12.5,33.6 17,33.5 L23,33.5 L27,33.5 Z" id="Shape"></path>
            <path d="M22.6,33.5 C18.6,34 15.7,35.6 15.5,38 C15.3,41.1 19.6,44 25.5,44.5 C31.4,45 36.3,42.6 36.5,39.5 C36.7,36.6 33.1,34.3 27.9,33.5" id="Shape"></path>
            <path d="M19.5,38.5 C19.4,40.1 22.3,41.2 26,41.5 C29.7,41.8 32.4,40.6 32.5,39 C32.6,37.4 30.2,36.8 26.5,36.5 C22.8,36.2 19.6,36.9 19.5,38.5 Z" id="Shape"></path>
        </g>
    </g>
</svg>
